#define btn-index_width 88
#define btn-index_height 24
static char btn-index_bits[] = {
  0x00, 0x00, 0x00, 0x00, 0x00, 0x00, 0x00, 0x00, 0x00, 0x00, 0x00, 0x00, 
  0x00, 0x00, 0x00, 0x00, 0x00, 0x00, 0x00, 0x00, 0x00, 0x00, 0x00, 0x00, 
  0x00, 0x00, 0x00, 0x00, 0x00, 0x00, 0x00, 0x00, 0x00, 0x00, 0x00, 0x00, 
  0x00, 0x00, 0x00, 0x00, 0x00, 0x00, 0x00, 0x00, 0x00, 0x00, 0x00, 0x00, 
  0x00, 0x00, 0x00, 0x00, 0x00, 0x00, 0x00, 0x00, 0x00, 0x00, 0x00, 0x00, 
  0x00, 0x00, 0x00, 0x00, 0x00, 0x00, 0x00, 0x80, 0x0F, 0x00, 0x00, 0x00, 
  0x00, 0x00, 0x00, 0x00, 0x00, 0x00, 0xC0, 0x18, 0x00, 0x00, 0x03, 0x00, 
  0x80, 0x01, 0x00, 0x00, 0x00, 0x60, 0x10, 0x00, 0x00, 0x03, 0x00, 0x80, 
  0x01, 0x00, 0x00, 0x00, 0x60, 0x00, 0xCF, 0x9F, 0x8F, 0xE7, 0xCF, 0xE7, 
  0x03, 0x00, 0x00, 0x70, 0x80, 0x99, 0x1B, 0xC3, 0xCC, 0x8D, 0x61, 0x02, 
  0x00, 0x00, 0x70, 0x80, 0x99, 0x39, 0xC3, 0xCC, 0x9C, 0xE1, 0x00, 0x00, 
  0x00, 0x60, 0xC0, 0xB9, 0x39, 0xE3, 0xCF, 0x9C, 0xE1, 0x03, 0x00, 0x00, 
  0x60, 0x90, 0x99, 0x39, 0xC3, 0xC0, 0x9C, 0x81, 0x03, 0x00, 0x00, 0xC0, 
  0x88, 0x99, 0x39, 0xC3, 0xC8, 0x9C, 0x31, 0x03, 0x00, 0x00, 0x80, 0x07, 
  0xCF, 0x3B, 0x8E, 0xE7, 0x1D, 0xE7, 0x01, 0x00, 0x00, 0x00, 0x00, 0x00, 
  0x00, 0x00, 0x00, 0x00, 0x00, 0x00, 0x00, 0x00, 0x00, 0x00, 0x00, 0x00, 
  0x00, 0x00, 0x00, 0x00, 0x00, 0x00, 0x00, 0x00, 0x00, 0x00, 0x00, 0x00, 
  0x00, 0x00, 0x00, 0x00, 0x00, 0x00, 0x00, 0x00, 0x00, 0x00, 0x00, 0x00, 
  0x00, 0x00, 0x00, 0x00, 0x00, 0x00, 0x00, 0x00, 0x00, 0x00, 0x00, 0x00, 
  0x00, 0x00, 0x00, 0x00, 0x00, 0x00, 0x00, 0x00, 0x00, 0x00, 0x00, 0x00, 
  0x00, 0x00, 0x00, 0x00, 0x00, 0x00, 0x00, 0x00, 0x00, 0x00, 0x00, 0x00, 
  0x00, 0x00, 0x00, 0x00, 0x00, 0x00, 0x00, 0x00, 0x00, 0x00, 0x00, 0x00, 
  };
