#define btn-search-over_width 88
#define btn-search-over_height 24
static char btn-search-over_bits[] = {
  0xFF, 0xFF, 0xFF, 0xFF, 0xFF, 0xFF, 0xFF, 0xFF, 0xFF, 0xFF, 0xFF, 0xFF, 
  0xFF, 0xFF, 0xFF, 0xFF, 0xFF, 0xFF, 0xFF, 0xFF, 0xFF, 0xFF, 0xFF, 0xFF, 
  0xFF, 0xFF, 0xFF, 0xFF, 0xFF, 0xFF, 0xFF, 0xFF, 0xFF, 0xFF, 0xFF, 0xFF, 
  0xFF, 0xFF, 0xFF, 0xFF, 0xFF, 0xFF, 0xFF, 0xFF, 0xFF, 0xFF, 0xFF, 0xFF, 
  0xFF, 0xFF, 0xFF, 0xFF, 0xFF, 0xFF, 0xFF, 0xFF, 0xFF, 0xFF, 0xFF, 0xFF, 
  0xFF, 0xFF, 0xFF, 0xFF, 0xFF, 0xFF, 0xFF, 0xFF, 0xFF, 0xE0, 0xFF, 0xFF, 
  0xFF, 0xF1, 0xFF, 0xFF, 0xFF, 0xFF, 0xFF, 0x7F, 0xEE, 0xFF, 0xFF, 0xFF, 
  0xF3, 0xFF, 0xFF, 0xFF, 0xFF, 0xFF, 0x7F, 0xEF, 0xFF, 0xFF, 0xFF, 0xF3, 
  0xFF, 0xFF, 0xFF, 0xFF, 0xFF, 0x7F, 0xFE, 0x38, 0x0C, 0x0C, 0x87, 0xFF, 
  0xFF, 0xFF, 0xFF, 0xFF, 0xFF, 0x70, 0xF6, 0x99, 0x75, 0xB3, 0xFF, 0xFF, 
  0xFF, 0xFF, 0xFF, 0xFF, 0x21, 0x37, 0x98, 0xF3, 0x33, 0xFF, 0xFF, 0xFF, 
  0xFF, 0xFF, 0xFF, 0x4F, 0x30, 0x9B, 0xF3, 0x33, 0xFF, 0xFF, 0xFF, 0xFF, 
  0xFF, 0x7F, 0x2F, 0x9F, 0x9B, 0xF3, 0xB7, 0xFF, 0xFF, 0xFF, 0xFF, 0xFF, 
  0x7F, 0x6E, 0xB7, 0x99, 0x77, 0x33, 0xFF, 0xFF, 0xFF, 0xFF, 0xFF, 0x7F, 
  0xE0, 0x30, 0x10, 0x0F, 0x13, 0xFF, 0xFF, 0xFF, 0xFF, 0xFF, 0xFF, 0xFF, 
  0xFF, 0xFF, 0xFF, 0xFF, 0xFF, 0xFF, 0xFF, 0xFF, 0xFF, 0xFF, 0xFF, 0xFF, 
  0xFF, 0xFF, 0xFF, 0xFF, 0xFF, 0xFF, 0xFF, 0xFF, 0xFF, 0xFF, 0xFF, 0xFF, 
  0xFF, 0xFF, 0xFF, 0xFF, 0xFF, 0xFF, 0xFF, 0xFF, 0xFF, 0xFF, 0xFF, 0xFF, 
  0xFF, 0xFF, 0xFF, 0xFF, 0xFF, 0xFF, 0xFF, 0xFF, 0xFF, 0xFF, 0xFF, 0xFF, 
  0xFF, 0xFF, 0xFF, 0xFF, 0xFF, 0xFF, 0xFF, 0xFF, 0xFF, 0xFF, 0xFF, 0xFF, 
  0xFF, 0xFF, 0xFF, 0xFF, 0xFF, 0xFF, 0xFF, 0xFF, 0xFF, 0xFF, 0xFF, 0xFF, 
  0xFF, 0xFF, 0xFF, 0xFF, 0xFF, 0xFF, 0xFF, 0xFF, 0xFF, 0xFF, 0xFF, 0xFF, 
  };
